wp-content/themes/watts/images/twitter.svg

<svg height="59.71" viewBox="0 0 73.47 59.71" width="73.47" xmlns="http://www.w3.org/2000/svg"><path d="m76.5 14.66a30.36 30.36 0 0 1 -8.66 2.34 15.17 15.17 0 0 0 6.63-8.3 30.27 30.27 0 0 1 -9.58 3.66 15.09 15.09 0 0 0 -25.68 13.75 42.79 42.79 0 0 1 -31.07-15.75 15.09 15.09 0 0 0 4.66 20.12 15 15 0 0 1 -6.8-1.89v.19a15.07 15.07 0 0 0 12.07 14.78 14.91 14.91 0 0 1 -4 .53 14.71 14.71 0 0 1 -2.84-.27 15.09 15.09 0 0 0 14.11 10.47 30.27 30.27 0 0 1 -18.72 6.45 30.24 30.24 0 0 1 -3.62-.21 42.63 42.63 0 0 0 23.1 6.78c27.73 0 42.89-23 42.89-42.89 0-.66 0-1.31 0-2a30.56 30.56 0 0 0 7.51-7.76z" transform="translate(-3.03 -7.6)"/></svg>

<svg id="twitter" data-name="Layer 1" xmlns="http://www.w3.org/2000/svg" width="73.47" height="59.71" viewBox="0 0 73.47 59.71">
  <defs>
    <style>
      
    </style>
  </defs>
  <title>twitter</title>
  <path class="twitter-cls-1" d="M76.5,14.66A30.36,30.36,0,0,1,67.84,17,15.17,15.17,0,0,0,74.47,8.7a30.27,30.27,0,0,1-9.58,3.66A15.09,15.09,0,0,0,39.21,26.11,42.79,42.79,0,0,1,8.14,10.36,15.09,15.09,0,0,0,12.8,30.48,15,15,0,0,1,6,28.59v.19A15.07,15.07,0,0,0,18.07,43.56a14.91,14.91,0,0,1-4,.53,14.71,14.71,0,0,1-2.84-.27A15.09,15.09,0,0,0,25.34,54.29,30.27,30.27,0,0,1,6.62,60.74,30.24,30.24,0,0,1,3,60.53a42.63,42.63,0,0,0,23.1,6.78c27.73,0,42.89-23,42.89-42.89,0-.66,0-1.31,0-2A30.56,30.56,0,0,0,76.5,14.66Z" transform="translate(-3.03 -7.6)"/>
</svg>
